assets/img/contacts/tg.svg

<svg width="80" height="80" viewBox="0 0 80 80" fill="none" xmlns="http://www.w3.org/2000/svg">
<path d="M68.8833 12.3887L9.78332 35.1787C5.74999 36.7987 5.77332 39.0487 9.04332 40.0521L24.2167 44.7854L59.3233 22.6354C60.9833 21.6254 62.5 22.1687 61.2533 23.2754L32.81 48.9454H32.8033L32.81 48.9487L31.7633 64.5887C33.2967 64.5887 33.9733 63.8854 34.8333 63.0554L42.2033 55.8887L57.5333 67.2121C60.36 68.7687 62.39 67.9687 63.0933 64.5954L73.1567 17.1687C74.1867 13.0387 71.58 11.1687 68.8833 12.3887Z" fill="#00A0E3"/>
</svg>

<svg width="80" height="80" fill="none" xmlns="http://www.w3.org/2000/svg"><path d="M68.883 12.389l-59.1 22.79c-4.033 1.62-4.01 3.87-.74 4.873l15.174 4.733 35.106-22.15c1.66-1.01 3.177-.466 1.93.64L32.81 48.945h-.007l.007.004-1.047 15.64c1.534 0 2.21-.704 3.07-1.534l7.37-7.166 15.33 11.323c2.827 1.557 4.857.757 5.56-2.617L73.157 17.17c1.03-4.13-1.577-6-4.274-4.78z" fill="#00A0E3"/></svg>
